theme-map4trip/src/main/assets/themes/mapsforgeV3/map4trip/symbols/traffic_signal.svg

<svg enable-background="new -0.2 -0.2 19 19" height="19" viewBox="-.2 -.2 19 19" width="19" xmlns="http://www.w3.org/2000/svg"><path d="m12.8 3.6c0 2-1.6 3.6-3.6 3.6s-3.6-1.6-3.6-3.6 1.6-3.6 3.6-3.6 3.6 1.6 3.6 3.6z"/><path d="m12.8 15.3c0 2-1.6 3.6-3.6 3.6s-3.6-1.6-3.6-3.6 1.6-3.6 3.6-3.6 3.6 1.7 3.6 3.6z"/><path d="m12.8 15.6h-7.1v-12h7.2v12z"/><path d="m11.9 3.6c0 1.5-1.2 2.7-2.7 2.7-1.4-.1-2.6-1.3-2.6-2.7 0-1.5 1.2-2.7 2.7-2.7 1.4 0 2.6 1.2 2.6 2.7z" fill="#f00"/><path d="m12 15.2c0 1.5-1.2 2.7-2.7 2.7s-2.7-1.2-2.7-2.7 1.2-2.7 2.7-2.7 2.7 1.2 2.7 2.7z" fill="#32cd32"/><path d="m12 9.3c0 1.5-1.2 2.7-2.7 2.7s-2.7-1.2-2.7-2.7 1.2-2.7 2.7-2.7 2.7 1.2 2.7 2.7z" fill="#ff0"/></svg>

<?xml version="1.0" encoding="utf-8"?>
<!-- Generator: Adobe Illustrator 14.0.0, SVG Export Plug-In . SVG Version: 6.00 Build 43363)  -->
<!DOCTYPE svg PUBLIC "-//W3C//DTD SVG 1.0//EN" "http://www.w3.org/TR/2001/REC-SVG-20010904/DTD/svg10.dtd">
<svg version="1.0"
	 id="symbol-traffic_signal" xmlns:xs="http://www.w3.org/2001/XMLSchema" xmlns:inkscape="http://www.inkscape.org/namespaces/inkscape" xmlns:rdf="http://www.w3.org/1999/02/22-rdf-syntax-ns#" xmlns:svg="http://www.w3.org/2000/svg" xmlns:cc="http://web.resource.org/cc/" xmlns:xi="http://www.w3.org/2001/XInclude" xmlns:dc="http://purl.org/dc/elements/1.1/"
	 xmlns="http://www.w3.org/2000/svg" xmlns:xlink="http://www.w3.org/1999/xlink" x="0px" y="0px" width="19px" height="19px"
	 viewBox="-0.2 -0.2 19 19" style="enable-background:new -0.2 -0.2 19 19;" xml:space="preserve">
<path d="M12.8,3.6c0,2-1.6,3.6-3.6,3.6c-2,0-3.6-1.6-3.6-3.6c0-2,1.6-3.6,3.6-3.6C11.2,0,12.8,1.6,12.8,3.6z"/>
<path d="M12.8,15.3c0,2-1.6,3.6-3.6,3.6c-2,0-3.6-1.6-3.6-3.6s1.6-3.6,3.6-3.6S12.8,13.4,12.8,15.3z"/>
<path d="M12.8,15.6H5.7V3.6h7.2V15.6z"/>
<path style="fill:#FF0000;" d="M11.9,3.6c0,1.5-1.2,2.7-2.7,2.7C7.8,6.2,6.6,5,6.6,3.6c0-1.5,1.2-2.7,2.7-2.7
	C10.7,0.9,11.9,2.1,11.9,3.6z"/>
<path style="fill:#32CD32;" d="M12,15.2c0,1.5-1.2,2.7-2.7,2.7c-1.5,0-2.7-1.2-2.7-2.7s1.2-2.7,2.7-2.7C10.8,12.5,12,13.7,12,15.2z"
	/>
<path style="fill:#FFFF00;" d="M12,9.3c0,1.5-1.2,2.7-2.7,2.7c-1.5,0-2.7-1.2-2.7-2.7c0-1.5,1.2-2.7,2.7-2.7C10.8,6.6,12,7.8,12,9.3
	z"/>
</svg>
